client/tmc/src/static/Images/github-svgrepo-com.svg

<svg width="24px" height="24px" viewBox="0 0 24 24" fill="none" xmlns="http://www.w3.org/2000/svg">
<path fill-rule="evenodd" clip-rule="evenodd" d="M7.39256 2.55138C7.14703 2.43057 6.84999 2.52957 6.72604 2.77354C6.54965 3.12073 6.48872 3.54477 6.48056 3.95128C6.47221 4.36689 6.51846 4.81221 6.59247 5.23337C6.66669 5.65576 6.77097 6.06589 6.88449 6.41397C6.93706 6.57515 6.99423 6.73123 7.05464 6.8731C6.08161 7.79504 5.53247 9.3377 5.99559 10.8352C6.51947 12.5292 8.26743 13.9793 11.6695 14.4944C11.9426 14.5357 12.1974 14.3479 12.2387 14.0749C12.2801 13.8018 12.0923 13.547 11.8192 13.5056C8.61657 13.0207 7.31618 11.7208 6.95095 10.5398C6.57482 9.32355 7.11597 8.03769 7.97681 7.40229C8.19069 7.24442 8.24365 6.94679 8.09735 6.72483C8.03465 6.62971 7.93748 6.41748 7.83521 6.10391C7.73648 5.80119 7.64355 5.43686 7.57738 5.0603C7.511 4.68252 7.47367 4.30442 7.48036 3.97136C7.48214 3.88254 7.48701 3.79994 7.49461 3.72364C7.84761 3.90773 8.21516 4.11134 8.56263 4.32708C9.1012 4.66147 9.55941 5.00557 9.8446 5.33008C9.99375 5.49979 10.2382 5.54839 10.4409 5.44863C11.3757 4.98868 12.5674 4.75 13.7131 4.75C14.8677 4.75 15.9012 4.99195 16.5506 5.41806C16.6703 5.49659 16.818 5.52005 16.9561 5.48248C17.0943 5.44491 17.2097 5.34993 17.2731 5.22158C17.4108 4.94314 17.7774 4.6115 18.2787 4.26584C18.5755 4.06112 18.8681 3.88404 19.1353 3.72418C19.1392 3.74872 19.143 3.7747 19.1465 3.80219C19.1819 4.0803 19.1808 4.42967 19.1546 4.81391C19.1076 5.50342 18.9857 6.23525 18.8996 6.75162C18.8898 6.81021 18.8805 6.86604 18.8719 6.91871C18.8557 7.01668 18.8691 7.11724 18.9103 7.20758C19.3957 8.27118 19.711 9.49635 19.3319 10.5989C18.9643 11.6677 17.8804 12.7899 15.1711 13.5171C14.9895 13.5658 14.8506 13.7123 14.8116 13.8962C14.7726 14.0802 14.8401 14.2704 14.9862 14.3887C15.7479 15.005 17.0366 16.5414 17.9359 18.3154C18.1619 18.7613 18.0611 19.1539 17.7897 19.4368C17.5023 19.7363 17.0034 19.9242 16.4443 19.8252C15.4348 19.6466 14.2963 19.5 13.2685 19.5C12.0311 19.5 10.4165 19.7132 9.04477 19.9395C8.49561 20.0302 8.03477 19.8344 7.78511 19.5459C7.55072 19.2749 7.47169 18.894 7.72421 18.4636C8.23521 17.5928 8.85218 16.8289 9.47837 16.4181C9.59341 16.3426 9.67226 16.223 9.69636 16.0876C9.72046 15.9521 9.68766 15.8127 9.60571 15.7022C9.43834 15.4765 9.05376 15.0752 8.43395 14.8493C7.79735 14.6172 6.9629 14.589 5.95074 15.044C5.46847 15.2607 5.07118 15.2896 4.7571 15.2255C4.44133 15.1612 4.17485 14.9959 3.96652 14.7681C3.52839 14.2892 3.40445 13.6084 3.57236 13.1839C3.67391 12.9271 3.54807 12.6366 3.29128 12.535C3.03449 12.4335 2.744 12.5593 2.64244 12.8161C2.30903 13.6592 2.58129 14.7354 3.22868 15.4431C3.5631 15.8087 4.01171 16.0941 4.55733 16.2054C5.10464 16.317 5.71504 16.2463 6.36074 15.956C7.15335 15.5998 7.71774 15.6525 8.09145 15.7888C8.22362 15.837 8.33823 15.898 8.43525 15.962C7.82678 16.4982 7.29132 17.2254 6.86172 17.9576C6.38863 18.7638 6.5189 19.6107 7.02886 20.2001C7.52355 20.7719 8.34213 21.069 9.20759 20.9262C10.5716 20.7011 12.118 20.5 13.2685 20.5C14.2128 20.5 15.2864 20.6359 16.27 20.8099C17.1381 20.9635 17.9793 20.6836 18.5113 20.1291C19.0593 19.5579 19.2572 18.7102 18.8279 17.8632C18.0904 16.4085 17.0993 15.085 16.2758 14.2281C18.5987 13.4439 19.8128 12.2755 20.2775 10.924C20.7634 9.51108 20.3723 8.05063 19.8831 6.93343C19.8841 6.92789 19.885 6.92232 19.8859 6.91672C19.9714 6.40485 20.1018 5.62365 20.1523 4.88188C20.1804 4.46893 20.1856 4.04647 20.1385 3.67599C20.0942 3.32776 19.9924 2.92319 19.7208 2.64846C19.5556 2.48146 19.2966 2.45188 19.098 2.57736C19.005 2.63617 18.8829 2.70927 18.7435 2.79278C18.4414 2.9737 18.0577 3.20347 17.7109 3.44262C17.3533 3.68927 16.9612 3.99247 16.6701 4.33935C15.839 3.93478 14.7781 3.75 13.7131 3.75C12.5709 3.75 11.3631 3.96215 10.3324 4.39916C9.97764 4.06566 9.53592 3.7543 9.09011 3.47751C8.51859 3.12266 7.9071 2.80457 7.39256 2.55138Z" fill="white"/>
</svg>

<svg width="24" height="24" fill="none" xmlns="http://www.w3.org/2000/svg"><path fill-rule="evenodd" clip-rule="evenodd" d="M7.393 2.551a.5.5 0 00-.667.223c-.176.347-.237.77-.245 1.177-.009.416.037.861.111 1.282.075.423.179.833.292 1.181.053.161.11.317.17.46-.972.921-1.522 2.464-1.058 3.961.523 1.694 2.271 3.144 5.673 3.66a.5.5 0 10.15-.99c-3.202-.484-4.503-1.784-4.868-2.965-.376-1.216.165-2.502 1.026-3.138a.5.5 0 00.12-.677c-.062-.095-.16-.308-.262-.621a7.804 7.804 0 01-.258-1.044 5.795 5.795 0 01-.097-1.089 3.14 3.14 0 01.015-.247c.353.184.72.387 1.068.603.538.334.996.679 1.282 1.003a.5.5 0 00.596.119c.935-.46 2.126-.699 3.272-.699 1.155 0 2.188.242 2.838.668a.5.5 0 00.722-.196c.138-.279.504-.61 1.006-.956.297-.205.59-.382.856-.542l.011.078c.036.278.035.628.009 1.012-.047.69-.17 1.421-.255 1.938l-.028.167a.5.5 0 00.038.289c.486 1.063.801 2.288.422 3.39-.368 1.07-1.452 2.192-4.16 2.92a.5.5 0 00-.186.87c.762.617 2.05 2.153 2.95 3.927.226.446.125.839-.146 1.122-.288.3-.787.487-1.346.388-1.01-.178-2.148-.325-3.175-.325-1.238 0-2.853.213-4.224.44-.55.09-1.01-.106-1.26-.394-.234-.271-.313-.652-.06-1.082.51-.871 1.127-1.635 1.753-2.046a.5.5 0 00.128-.716 2.59 2.59 0 00-1.172-.853c-.637-.232-1.471-.26-2.483.195-.483.217-.88.246-1.194.181a1.46 1.46 0 01-.79-.457c-.439-.479-.563-1.16-.395-1.584a.5.5 0 00-.93-.368c-.333.843-.06 1.92.587 2.627a2.46 2.46 0 001.328.762c.548.112 1.158.041 1.804-.249.792-.356 1.357-.303 1.73-.167.133.048.247.109.344.173-.608.536-1.144 1.263-1.573 1.996-.473.806-.343 1.653.167 2.242.495.572 1.313.869 2.179.726 1.364-.225 2.91-.426 4.06-.426.945 0 2.018.136 3.002.31.868.154 1.71-.126 2.241-.68.548-.572.746-1.42.317-2.267-.738-1.454-1.729-2.778-2.552-3.635 2.323-.784 3.537-1.953 4.002-3.304.485-1.413.094-2.873-.395-3.99a.882.882 0 00.003-.017c.085-.512.216-1.293.266-2.035a6.416 6.416 0 00-.014-1.206c-.044-.348-.146-.753-.417-1.028a.5.5 0 00-.623-.07c-.093.058-.215.131-.354.215-.303.18-.686.41-1.033.65-.358.246-.75.55-1.04.896-.832-.404-1.893-.589-2.958-.589-1.142 0-2.35.212-3.38.65-.355-.334-.797-.646-1.243-.922a20.102 20.102 0 00-1.697-.927z" fill="#fff"/></svg>
